icons/linux.svg

<svg xmlns="http://www.w3.org/2000/svg" viewBox="0 0 16 16"><style>  .a{fill:#202020;}.b{fill:#fff;}</style><path d="M8.3339844 0C8.2314481-0.00044484263 8.125105 0.004775025 8.0136719 0.013671875 5.1963945 0.2360932 5.9442034 3.2186673 5.9023438 4.2128906 5.8508309 4.9406532 5.7025274 5.5161488 5.2011719 6.2265625 4.6123782 6.9276345 3.7833396 8.059622 3.390625 9.2402344 3.2053391 9.7949531 3.1179237 10.363021 3.1992188 10.900391 3.1737327 10.923031 3.148257 10.945614 3.125 10.990234 2.9521741 11.168171 2.8259079 11.390019 2.6835938 11.548828 2.5505813 11.682281 2.3606991 11.727437 2.1523438 11.816406 1.9439837 11.905376 1.7149517 11.994619 1.5761719 12.269531 1.5108739 12.402984 1.4882813 12.53647 1.4882812 12.669922 1.4882812 12.803375 1.5069726 12.938376 1.5253906 13.027344 1.5637136 13.29425 1.6023073 13.51413 1.5507812 13.673828 1.3859537 14.126678 1.3643875 14.437638 1.4804688 14.664062 1.5969241 14.886484 1.8371133 14.975485 2.1074219 15.064453 2.648033 15.197906 3.3801452 15.153455 3.9570312 15.464844 4.5746597 15.776234 5.2016741 15.910796 5.7011719 15.777344 6.0635852 15.688374 6.3567528 15.465436 6.5078125 15.146484 6.8984733 15.144684 7.3268393 14.968313 8.0136719 14.923828 8.4796846 14.886058 9.0628892 15.101125 9.7324219 15.056641 9.7499089 15.145611 9.7739967 15.190329 9.8085938 15.279297L9.8105469 15.28125C10.070068 15.800382 10.552377 16.036129 11.066406 15.996094 11.580956 15.955254 12.127907 15.639238 12.570312 15.125 12.99189 14.614766 13.692101 14.402853 14.15625 14.123047 14.388236 13.989594 14.57512 13.81136 14.589844 13.554688 14.604314 13.287782 14.456687 13.013946 14.113281 12.636719L14.113281 12.572266 14.111328 12.570312C13.998427 12.43686 13.944548 12.214247 13.886719 11.953125 13.829019 11.686219 13.765045 11.429348 13.558594 11.255859L13.556641 11.255859C13.515711 11.219919 13.473904 11.210586 13.431641 11.166016 13.389241 11.140706 13.347659 11.123047 13.304688 11.123047 13.591697 10.270724 13.479312 9.4235062 13.189453 8.6601562 12.833934 7.7193143 12.212474 6.9015063 11.738281 6.3378906 11.20753 5.6675128 10.688975 5.0330839 10.699219 4.0917969 10.715014 2.658069 10.855108 0.0044484286 8.3339844 0zM8.6875 2.2695312L8.6953125 2.2695312C8.838196 2.2695312 8.9604029 2.311062 9.0859375 2.4023438 9.213385 2.4913128 9.3048844 2.6243597 9.3789062 2.7578125 9.4492084 2.9302267 9.4829761 3.0635333 9.4882812 3.2402344 9.4885448 3.2270588 9.4922979 3.2143571 9.4921875 3.2011719L9.4921875 3.2695312C9.4909066 3.2646414 9.4902335 3.2607494 9.4902344 3.2558594 9.4901253 3.2501017 9.4884513 3.2458946 9.4882812 3.2402344 9.4849889 3.4048663 9.4546468 3.5680152 9.3886719 3.7109375 9.3481169 3.7999065 9.3020989 3.8891094 9.2460938 3.9335938 9.2270987 3.9242937 9.207969 3.914702 9.1875 3.90625 9.1166365 3.8760894 9.0542306 3.8629771 8.9980469 3.8183594 8.9418633 3.7970515 8.896803 3.7818895 8.8515625 3.7734375 8.8843235 3.7339355 8.9486348 3.6851088 8.9726562 3.640625 9.0091193 3.551656 9.027913 3.4620154 9.03125 3.3730469L9.03125 3.3613281C9.0333 3.2723591 9.0210215 3.1827185 8.9921875 3.09375 8.9620508 3.0047812 8.924568 2.9600623 8.8691406 2.8710938 8.8135353 2.8266984 8.7580436 2.7832031 8.6914062 2.7832031L8.6816406 2.7832031C8.6191406 2.7832031 8.5640406 2.8038778 8.5078125 2.8710938 8.4488265 2.9154887 8.4055732 3.0047814 8.3691406 3.09375 8.3328646 3.182719 8.3141059 3.2723596 8.3105469 3.3613281 8.3100086 3.3653281 8.3105469 3.3690859 8.3105469 3.3730469 8.3092469 3.4174419 8.3135246 3.4618133 8.3222656 3.5507812 8.1942382 3.5064305 8.0311367 3.4604999 7.9179688 3.4160156 7.9114577 3.3716203 7.9073657 3.3276874 7.90625 3.2832031L7.90625 3.2695312C7.9042037 3.0915937 7.9338403 2.9126178 8.0058594 2.7578125 8.0778349 2.5798755 8.1676122 2.4913123 8.2929688 2.4023438 8.4185478 2.3133751 8.5414582 2.2695312 8.6875 2.2695312zM6.7128906 2.3085938C6.7210806 2.3081487 6.7283291 2.3085936 6.7363281 2.3085938 6.8313911 2.3085938 6.9160944 2.3414085 7.0039062 2.3984375 7.0991472 2.4874065 7.1721457 2.5755316 7.2324219 2.7089844 7.2928759 2.8424372 7.3249983 2.9763599 7.3339844 3.1542969L7.3339844 3.15625C7.3382644 3.245219 7.3374212 3.2895002 7.3320312 3.3339844L7.3320312 3.3867188C7.3132433 3.3924587 7.2953958 3.3985139 7.2773438 3.4042969 7.1750299 3.4397959 7.0941397 3.4926256 7.015625 3.5371094 7.023255 3.4927144 7.0235281 3.448343 7.0175781 3.359375 7.0170216 3.355815 7.0175781 3.3531194 7.0175781 3.3496094 7.0093939 3.2606391 6.9917177 3.2159216 6.9628906 3.1269531 6.9321929 3.0379846 6.8967585 2.9937029 6.8515625 2.9492188 6.8106347 2.9141651 6.7732626 2.90625 6.7304688 2.90625 6.7261888 2.90625 6.7212649 2.9058052 6.7167969 2.90625 6.6687979 2.91025 6.629564 2.9327076 6.5917969 2.9941406 6.5542179 3.0384916 6.5296018 3.08486 6.5117188 3.1738281 6.4938607 3.2627971 6.4886526 3.3055627 6.4960938 3.3945312L6.4960938 3.4042969C6.5042837 3.4932659 6.5213862 3.5379845 6.5507812 3.6269531 6.5809182 3.7159221 6.6149602 3.7602033 6.6601562 3.8046875 6.6677862 3.8113175 6.6761528 3.8173726 6.6835938 3.8222656 6.6367078 3.8586536 6.6051078 3.8675354 6.5664062 3.9121094 6.5416643 3.9298584 6.5127686 3.9521382 6.4785156 3.9570312 6.4039156 3.8680622 6.3459009 3.7784216 6.2949219 3.6894531 6.2346452 3.5559964 6.2011038 3.4220777 6.1914062 3.2441406 6.1824763 3.0662036 6.1996856 2.9322809 6.2441406 2.7988281 6.2888026 2.6653753 6.3471163 2.5323279 6.4335938 2.4433594 6.5199378 2.3543904 6.6079522 2.3085938 6.7128906 2.3085938zM7.6269531 3.4472656C7.8475862 3.4472656 8.1142371 3.4904692 8.4355469 3.7128906 8.632928 3.8463434 8.785022 3.8919378 9.1386719 4.0253906L9.140625 4.0253906C9.3106884 4.1143591 9.4100517 4.2020471 9.4589844 4.2910156L9.4589844 4.203125C9.5077254 4.2920935 9.5096768 4.4266565 9.46875 4.515625 9.3871035 4.7233665 9.1255152 4.9446725 8.7597656 5.078125L8.7597656 5.0800781C8.5813704 5.1690466 8.4258185 5.301656 8.2421875 5.390625 8.0589434 5.4795931 7.8503897 5.5847744 7.5683594 5.5683594 7.448163 5.5683594 7.3517823 5.5584915 7.2695312 5.5234375 7.1872799 5.4789537 7.1196345 5.434976 7.0546875 5.390625 6.9248379 5.3016565 6.8120549 5.1690471 6.6464844 5.0800781L6.6464844 5.078125 6.6445312 5.078125C6.3777457 4.9144229 6.2330964 4.7369684 6.1875 4.6035156 6.1417257 4.4255786 6.1841545 4.2920935 6.3164062 4.203125 6.4652506 4.1141564 6.5696324 4.0248196 6.6386719 3.9804688 6.7071332 3.9314472 6.7339077 3.9134412 6.7558594 3.8925781L6.7578125 3.8925781 6.7578125 3.890625C6.8696192 3.7571722 7.0475879 3.5792029 7.3164062 3.4902344 7.4088445 3.4667467 7.5114275 3.4477104 7.6269531 3.4472656zM9.4921875 4.875C9.732536 5.8202906 10.29114 7.1914925 10.650391 7.8574219 10.841451 8.213296 11.220668 8.9628988 11.384766 9.8730469 11.488771 9.8699769 11.603966 9.8845206 11.726562 9.9160156 12.155747 8.8021292 11.36272 7.6046715 11 7.2714844 10.853558 7.1380316 10.845237 7.0488281 10.917969 7.0488281 11.311254 7.4047022 11.827715 8.0966782 12.015625 8.8867188 12.101395 9.2425928 12.121231 9.6227738 12.029297 10 12.074137 10.01864 12.119664 10.039132 12.166016 10.044922 12.854895 10.400796 13.108735 10.670843 12.986328 11.070312L12.986328 11.041016C12.945958 11.039216 12.905849 11.040161 12.867188 11.041016L12.857422 11.041016C12.957332 10.729627 12.735442 10.49107 12.146484 10.224609 11.535737 9.9577046 11.049021 10.001345 10.966797 10.535156 10.961597 10.563586 10.958228 10.58043 10.955078 10.625 10.909308 10.64101 10.862585 10.659569 10.816406 10.667969 10.529705 10.845906 10.374161 11.113786 10.287109 11.458984 10.200229 11.814858 10.174234 12.229986 10.150391 12.705078L10.150391 12.707031C10.135691 12.929456 10.036834 13.265338 9.9375 13.607422 8.9370133 14.32184 7.5501715 14.633019 6.3710938 13.830078 6.291289 13.696625 6.1978667 13.563577 6.1035156 13.474609 6.0432394 13.38564 5.9813102 13.296437 5.9199219 13.251953 6.0408302 13.252398 6.1453745 13.231898 6.2285156 13.207031 6.3319415 13.162636 6.4033764 13.073343 6.4394531 12.984375 6.5112507 12.806438 6.439085 12.519485 6.2089844 12.208984 5.9788673 11.897595 5.5901884 11.545848 5.0175781 11.195312 4.596757 10.928408 4.360131 10.614208 4.25 10.263672 4.1396834 9.9077977 4.1552178 9.5407468 4.2402344 9.1679688 4.4032025 8.4535514 4.8227007 7.761228 5.0898438 7.3261719 5.1616414 7.2817766 5.1144956 7.4154423 4.8183594 7.9746094 4.5530553 8.4759471 4.0571482 9.6396671 4.7363281 10.544922 4.7545595 9.9012346 4.9095596 9.2439498 5.1679688 8.6269531 5.5443056 7.7746346 6.3300688 6.2913983 6.3925781 5.1152344 6.4249481 5.1387664 6.5366489 5.2055162 6.5859375 5.25 6.7303334 5.338969 6.8380343 5.4715784 6.9785156 5.5605469 7.1193528 5.6939997 7.2968578 5.7832031 7.5625 5.7832031 7.587988 5.7849831 7.6123417 5.7871094 7.6367188 5.7871094 7.9105638 5.7871094 8.1229331 5.6983431 8.3007812 5.609375 8.4940654 5.520406 8.6484886 5.3862812 8.7949219 5.3417969L8.796875 5.3417969C9.1062187 5.2528279 9.3523112 5.0742895 9.4921875 4.875zM10.949219 10.847656C10.974349 11.248014 11.178433 11.677101 11.537109 11.765625 11.929638 11.854595 12.493555 11.543673 12.732422 11.255859 12.780242 11.254059 12.82781 11.2509 12.873047 11.25 13.082702 11.2451 13.257841 11.256897 13.4375 11.427734L13.439453 11.429688C13.577487 11.56314 13.642324 11.783688 13.699219 12.013672 13.756159 12.280577 13.801837 12.533771 13.972656 12.724609 14.296693 13.076012 14.402628 13.328559 14.396484 13.484375 14.396585 13.482743 14.398355 13.482116 14.398438 13.480469L14.398438 13.492188C14.398552 13.490237 14.396406 13.486358 14.396484 13.484375 14.385745 13.659044 14.272519 13.748643 14.064453 13.880859 13.644744 14.147765 12.900699 14.355221 12.425781 14.927734 12.013144 15.420175 11.511289 15.687068 11.068359 15.722656 10.625384 15.757706 10.243047 15.588797 10.017578 15.123047L10.015625 15.121094C9.8757223 14.854154 9.9349914 14.438094 10.052734 13.994141 10.170484 13.549299 10.338596 13.09729 10.361328 12.728516 10.385118 12.253424 10.412782 11.839373 10.492188 11.519531 10.571817 11.208141 10.696215 10.987837 10.917969 10.863281 10.928389 10.857581 10.938989 10.852996 10.949219 10.847656zM3.7402344 10.880859L3.7460938 10.880859C3.7792077 10.880859 3.8143604 10.882872 3.8515625 10.888672 4.1027028 10.926442 4.3222422 11.111709 4.5332031 11.390625L5.140625 12.5 5.1425781 12.501953C5.3046343 12.857827 5.6455184 13.212075 5.9355469 13.59375 6.2243679 13.992429 6.4488464 14.348158 6.421875 14.640625L6.421875 14.642578C6.421875 14.642578 6.421875 14.644531 6.421875 14.644531 6.3832981 15.140089 6.1021002 15.410085 5.671875 15.507812 5.2414008 15.596782 4.6572429 15.5091 4.0742188 15.197266 3.429055 14.841392 2.6623493 14.885844 2.1699219 14.796875 1.9238038 14.752525 1.7611713 14.66275 1.6875 14.529297 1.61383 14.395844 1.6128932 14.129805 1.7695312 13.708984L1.7695312 13.707031 1.7714844 13.705078C1.8490604 13.482656 1.7914862 13.202758 1.7539062 12.958984 1.7163283 12.692079 1.697347 12.487281 1.78125 12.332031 1.8885905 12.10961 2.0468509 12.065532 2.2421875 11.976562 2.4377092 11.887593 2.6686908 11.842 2.8515625 11.664062L2.8535156 11.664062 2.8535156 11.662109C3.0226181 11.484172 3.1501884 11.262325 3.2988281 11.103516 3.4242159 10.970064 3.5510339 10.880859 3.7402344 10.880859z"/><path d="M8.5125115 4.8315458C8.22154 4.9649986 7.8816757 5.18742 7.5200231 5.18742 7.158544 5.18742 6.8730039 5.0094829 6.6676245 4.8760301 6.5649104 4.7870616 6.4815469 4.6980931 6.4187351 4.6536088 6.3096597 4.5646403 6.3226936 4.4311875 6.3675337 4.4311875c0.075134 0.0093 0.086522 0.088969 0.1338087 0.1334528 0.064013 0.044395 0.1441735 0.1334528 0.2412826 0.2224213 0.1942183 0.1334528 0.4531746 0.3113898 0.7774293 0.3113898 0.3237119 0 0.7015657-0.177937 0.9322077-0.3113898 0.1306503-0.088969 0.296977-0.2224213 0.432654-0.3113899 0.1038263-0.088969 0.1000451-0.177937 0.1857663-0.177937 0.085721 0.00974 0.022308 0.088969-0.097732 0.2224213C8.8528873 4.609125 8.6651192 4.7425773 8.512556 4.8315458Z" class="a"/><path d="m7.7906414 3.7747332c0.012033 0.038612 0.074289 0.031984 0.110232 0.044395 0.031559 0.016415 0.05694 0.044395 0.092394 0.044395 0.033866 0.0008897 0.086611-0.011566 0.09097-0.044395 0.00582-0.044395-0.058986-0.088969-0.1007124-0.088969-0.053648-0.020863-0.1224207-0.031495-0.1727324-0.00351-0.011536 0.00618-0.024127 0.021308-0.0202 0.034164zm-0.3676625 0c-0.012033 0.038612-0.074289 0.031984-0.110232 0.044395-0.031559 0.016415-0.05694 0.044395-0.092394 0.044395-0.033866 0.0008897-0.086611-0.011566-0.09097-0.044395-0.00582-0.044395 0.058986-0.088969 0.1007123-0.088969 0.053648-0.020863 0.1224207-0.031495 0.1727324-0.00351 0.011536 0.00618 0.024126 0.021263 0.0202 0.034164z" class="a"/></svg>

<svg xmlns="http://www.w3.org/2000/svg" viewBox="0 0 16 16"><path d="M8.337 0c-.103 0-.21.005-.32.014-2.818.222-2.07 3.205-2.112 4.199-.052.728-.2 1.303-.701 2.014-.59.7-1.418 1.833-1.81 3.013-.186.555-.274 1.123-.192 1.66-.026.023-.051.046-.074.09-.173.178-.3.4-.442.559-.133.133-.323.178-.531.267-.208.09-.438.179-.576.454a.89.89 0 0 0-.088.4c0 .133.019.268.037.357.038.267.077.487.025.647-.165.453-.186.764-.07.99.116.223.357.312.627.4.54.134 1.273.09 1.85.4.617.312 1.244.447 1.744.313a1.18 1.18 0 0 0 .806-.63c.391-.002.82-.179 1.506-.223.466-.038 1.05.177 1.719.133.017.089.042.133.076.222l.002.002c.26.52.742.755 1.256.715.514-.04 1.061-.357 1.504-.871.421-.51 1.122-.722 1.586-1.002.232-.133.419-.312.433-.568.015-.267-.133-.541-.476-.918v-.065l-.002-.002c-.113-.133-.167-.356-.225-.617-.057-.267-.121-.524-.328-.697h-.002c-.04-.036-.083-.045-.125-.09a.252.252 0 0 0-.127-.043c.287-.852.175-1.7-.115-2.463-.356-.94-.977-1.758-1.451-2.322-.53-.67-1.05-1.305-1.04-2.246.017-1.434.157-4.088-2.364-4.092zm.353 2.27h.008c.143 0 .265.041.39.132.128.09.22.222.293.356.07.172.105.306.11.482 0-.013.004-.026.004-.039v.069a.05.05 0 0 1-.002-.014L9.49 3.24a1.184 1.184 0 0 1-.1.471.633.633 0 0 1-.142.223c-.02-.01-.038-.02-.059-.028-.07-.03-.133-.043-.19-.088a.86.86 0 0 0-.146-.045c.033-.039.097-.088.121-.132a.779.779 0 0 0 .059-.268v-.012a.803.803 0 0 0-.04-.267c-.03-.09-.067-.134-.122-.223-.056-.044-.111-.088-.178-.088h-.01c-.062 0-.117.02-.174.088a.542.542 0 0 0-.138.223.788.788 0 0 0-.059.267v.012a1.44 1.44 0 0 0 .012.178c-.128-.045-.291-.09-.404-.135a1.102 1.102 0 0 1-.012-.133V3.27a1.189 1.189 0 0 1 .1-.512.73.73 0 0 1 .287-.356.653.653 0 0 1 .394-.132zm-1.975.039h.024c.095 0 .18.032.267.09a.918.918 0 0 1 .229.31c.06.133.093.267.102.445v.002c.004.09.003.134-.002.178v.053c-.02.005-.037.012-.055.017-.102.036-.183.089-.262.133a.725.725 0 0 0 .002-.178v-.01c-.008-.088-.026-.133-.055-.222a.41.41 0 0 0-.11-.178.17.17 0 0 0-.122-.043h-.014c-.048.004-.087.027-.125.088a.358.358 0 0 0-.08.18.651.651 0 0 0-.015.22v.01c.008.09.025.134.054.223.03.089.064.133.11.178a.224.224 0 0 0 .023.017c-.047.037-.078.046-.117.09-.025.018-.054.04-.088.045a1.804 1.804 0 0 1-.184-.268 1.182 1.182 0 0 1-.103-.445 1.157 1.157 0 0 1 .053-.445.945.945 0 0 1 .19-.356c.085-.089.173-.134.278-.134zm.914 1.138c.221 0 .488.043.81.266.196.133.349.179.702.312h.002c.17.09.27.177.319.266v-.088a.38.38 0 0 1 .01.313c-.082.207-.344.429-.71.562v.002c-.178.09-.334.222-.517.31-.184.09-.392.195-.674.178a.758.758 0 0 1-.299-.045 2.364 2.364 0 0 1-.215-.132c-.13-.09-.242-.222-.408-.31v-.003h-.002c-.267-.164-.411-.341-.457-.474-.046-.178-.003-.312.129-.4.149-.09.253-.18.322-.224.069-.049.095-.067.117-.087h.002V3.89c.112-.134.29-.312.559-.4.092-.024.195-.043.31-.044zm1.866 1.428c.24.945.799 2.317 1.158 2.982.191.356.57 1.106.734 2.016.104-.003.22.012.342.043.43-1.114-.364-2.311-.726-2.644-.147-.134-.155-.223-.082-.223.393.356.91 1.048 1.097 1.838.086.356.106.736.014 1.113.045.019.09.04.137.045.688.356.942.626.82 1.025v-.029c-.04-.002-.08 0-.12 0h-.009c.1-.311-.122-.55-.711-.816-.61-.267-1.097-.224-1.18.31-.005.029-.008.045-.011.09-.046.016-.093.035-.14.043-.286.178-.441.446-.528.791-.087.356-.113.771-.137 1.246v.002c-.015.222-.114.558-.213.9-1 .715-2.387 1.026-3.566.223a1.723 1.723 0 0 0-.268-.355.95.95 0 0 0-.184-.223c.121 0 .226-.02.31-.045a.409.409 0 0 0 .21-.223c.072-.178 0-.464-.23-.775s-.62-.663-1.192-1.014c-.42-.267-.657-.58-.767-.931-.11-.356-.095-.723-.01-1.096.163-.714.582-1.407.85-1.842.071-.044.024.09-.272.649-.265.501-.761 1.665-.082 2.57a5.408 5.408 0 0 1 .432-1.918c.376-.852 1.162-2.336 1.224-3.512.032.024.144.09.193.135.145.089.253.222.393.31.14.134.318.223.584.223.026.002.05.004.074.004.274 0 .486-.089.664-.178.194-.089.348-.223.494-.267H8.8c.31-.09.556-.268.696-.467zm1.457 5.973c.025.4.229.83.588.918.392.089.956-.222 1.195-.51l.14-.006c.21-.005.385.007.565.178l.002.002c.138.133.203.354.26.584.057.267.102.52.273.71.324.352.43.605.424.76l.002-.004v.012l-.002-.008c-.01.175-.124.265-.332.397-.42.267-1.164.474-1.639 1.047-.412.492-.914.76-1.357.795-.443.035-.825-.134-1.05-.6l-.003-.002c-.14-.267-.08-.683.037-1.127.118-.445.286-.897.309-1.265.024-.476.051-.89.13-1.21.08-.31.205-.531.427-.656l.03-.015zm-7.21.033h.007a.68.68 0 0 1 .105.008c.251.037.47.223.682.502l.607 1.109.002.002c.162.356.503.71.793 1.092.289.398.513.754.486 1.047v.004c-.038.495-.32.765-.75.863-.43.089-1.014.001-1.597-.31-.645-.357-1.412-.312-1.905-.401-.246-.044-.408-.134-.482-.268-.074-.133-.075-.4.082-.82v-.002l.002-.002c.078-.222.02-.502-.018-.746-.037-.267-.056-.472.028-.627.107-.222.265-.266.46-.355.196-.09.427-.135.61-.313h.002v-.002c.17-.178.297-.4.445-.558.126-.134.253-.223.442-.223zm4.773-6.05c-.29.134-.63.356-.992.356s-.647-.177-.853-.31c-.103-.09-.186-.179-.249-.223-.109-.09-.096-.223-.05-.223.074.01.086.09.133.134.064.044.144.133.241.222.194.134.453.311.778.311.323 0 .701-.177.932-.31.13-.09.297-.223.432-.312.104-.09.1-.178.186-.178.086.01.023.089-.098.222-.12.09-.307.223-.46.312zm-.722-1.056V3.76c-.004-.013.009-.028.02-.034.05-.028.12-.018.173.003.042 0 .107.045.1.09-.004.032-.056.044-.09.044-.036 0-.061-.028-.093-.045-.036-.012-.098-.006-.11-.044zm-.367 0c-.013.038-.075.032-.11.044-.032.017-.058.045-.093.045-.034 0-.087-.012-.091-.045-.006-.044.059-.089.1-.089.054-.02.123-.031.173-.003.012.006.024.02.02.034v.014z"/></svg>
